assets/img/braze_icons/bell-02.svg

<svg fill="none" height="24" viewBox="0 0 24 24" width="24" xmlns="http://www.w3.org/2000/svg"><g clip-rule="evenodd" fill="#801ed7" fill-rule="evenodd"><path d="m8.99998 21c0-.5523.44772-1 1-1h4.00002c.5523 0 1 .4477 1 1s-.4477 1-1 1h-4.00002c-.55228 0-1-.4477-1-1z"/><path d="m7.05023 3.05025c1.31276-1.31275 3.09327-2.05025 4.94977-2.05025s3.637.7375 4.9497 2.05025c1.3128 1.31276 2.0503 3.09324 2.0503 4.94975 0 2.9127.732 4.8439 1.4994 6.0771l.0118.0191c.3573.5742.6398 1.0281.8302 1.3585.0954.1655.1823.325.2467.4668.0321.0707.0681.1575.0962.2518.0233.0782.0677.2454.051.449-.0112.1368-.0391.3705-.1732.612-.1342.2415-.3179.3887-.4281.4704-.2503.1857-.5377.2282-.6337.2423l-.0044.0007c-.1474.0218-.3147.0327-.4834.0392-.3353.0131-.7994.0131-1.3767.0131h-13.27167c-.57722 0-1.04137 0-1.37662-.0131-.16876-.0065-.33603-.0174-.48344-.0392l-.00443-.0007c-.09593-.0141-.38336-.0566-.63365-.2423-.11024-.0817-.29397-.2289-.42812-.4704s-.16205-.4752-.17324-.612c-.01664-.2036.02776-.3708.05106-.449.0281-.0943.06404-.1811.09617-.2518.06436-.1418.15129-.3013.24671-.4668.19043-.3304.47291-.7844.83023-1.3586l.0118-.019c.76738-1.2332 1.49938-3.1644 1.49938-6.0771 0-1.85652.7375-3.63699 2.05025-4.94975z"/></g></svg>

<svg width="24" height="24" viewBox="0 0 24 24" fill="none" xmlns="http://www.w3.org/2000/svg">
<path fill-rule="evenodd" clip-rule="evenodd" d="M8.99998 21C8.99998 20.4477 9.4477 20 9.99998 20H14C14.5523 20 15 20.4477 15 21C15 21.5523 14.5523 22 14 22H9.99998C9.4477 22 8.99998 21.5523 8.99998 21Z" fill="#801ED7"/>
<path fill-rule="evenodd" clip-rule="evenodd" d="M7.05023 3.05025C8.36299 1.7375 10.1435 1 12 1C13.8565 1 15.637 1.7375 16.9497 3.05025C18.2625 4.36301 19 6.14349 19 8C19 10.9127 19.732 12.8439 20.4994 14.0771L20.5112 14.0962C20.8685 14.6704 21.151 15.1243 21.3414 15.4547C21.4368 15.6202 21.5237 15.7797 21.5881 15.9215C21.6202 15.9922 21.6562 16.079 21.6843 16.1733C21.7076 16.2515 21.752 16.4187 21.7353 16.6223C21.7241 16.7591 21.6962 16.9928 21.5621 17.2343C21.4279 17.4758 21.2442 17.623 21.134 17.7047C20.8837 17.8904 20.5963 17.9329 20.5003 17.947L20.4959 17.9477C20.3485 17.9695 20.1812 17.9804 20.0125 17.9869C19.6772 18 19.2131 18 18.6358 18H5.36413C4.78691 18 4.32276 18 3.98751 17.9869C3.81875 17.9804 3.65148 17.9695 3.50407 17.9477L3.49964 17.947C3.40371 17.9329 3.11628 17.8904 2.86599 17.7047C2.75575 17.623 2.57202 17.4758 2.43787 17.2343C2.30372 16.9928 2.27582 16.7591 2.26463 16.6223C2.24799 16.4187 2.29239 16.2515 2.31569 16.1733C2.34379 16.079 2.37973 15.9922 2.41186 15.9215C2.47622 15.7797 2.56315 15.6202 2.65857 15.4547C2.849 15.1243 3.13148 14.6703 3.4888 14.0961L3.5006 14.0771C4.26798 12.8439 4.99998 10.9127 4.99998 8C4.99998 6.14348 5.73748 4.36301 7.05023 3.05025Z" fill="#801ED7"/>
</svg>
